src/icons/logos/tail-AT.svg

<svg>
    <defs>
        <path d="M659.5555,1 C670.3635,1 679.1255,9.764 679.1255,20.575 C679.1255,21.731 679.025,22.864 678.833,23.965 L521.3915,631.934 C518.5705,638.453 508.106,652.3145 487.193,652.75 L486.556,652.759 L2,652.838 C338.535,231.2945 507.627,19.5075 509.275,17.477 C516.5705,8.4935 528.951,1.148 541.5525,1 L659.5555,1 Z" id="path-1"></path>
        <polygon id="path-3" points="0.000322364239 0.183437931 353.08166 0.183437931 353.08166 413.554264 0.000322364239 413.554264"></polygon>
    </defs>
    <g id="ROYALAIRMAROC" stroke="none" stroke-width="1" fill="none" fill-rule="evenodd">
        <g id="Mask-Raw" transform="translate(88.000000, 88.000000)">
            <path d="M659.5555,0.25 L541.5525,0.25 C529.417951,0.392464104 516.653519,7.20156168 508.692801,17.0041958 L504.143997,22.693252 L408.78043,142.119216 L0.441350848,653.588254 L486.556122,653.509 L487.203595,653.499925 C496.850749,653.299046 504.993321,650.296167 511.536706,645.215715 C516.398031,641.441257 520.090369,636.67697 521.967184,632.487618 L522.102948,632.178405 L679.55905,24.1530201 L679.57185,24.0938457 C679.773302,22.9386432 679.8755,21.7624542 679.8755,20.575 C679.8755,9.34991032 670.777837,0.25 659.5555,0.25 Z M541.561308,1.74994828 L659.5555,1.74994828 C669.949327,1.74994828 678.3755,10.1782545 678.3755,20.575 L678.3755,20.9873085 C678.353341,21.8108328 678.282538,22.6275948 678.159826,23.4338938 L678.099,23.806 L520.6795,631.689 L520.703183,631.636141 C518.963128,635.657204 515.375715,640.335962 510.616794,644.03091 C504.32299,648.917581 496.490164,651.80623 487.177385,652.000163 L486.545405,652.009075 L3.558,652.0875 L468.817257,69.3318426 L505.306926,23.640727 L509.555328,18.3259168 L509.857335,17.9496367 C517.549486,8.47771051 529.904809,1.88684959 541.561308,1.74994828 Z" id="BG" fill="#000000" fill-rule="nonzero"></path>
            <mask id="mask-2" fill="white">
                <use xlink:href="#path-1"></use>
            </mask>
            <use id="FG" fill="#FFFFFF" xlink:href="#path-1"></use>
            <g id="Group-6" mask="url(#mask-2)">
                <g transform="translate(392.500000, 365.000000) scale(-1, 1) translate(-392.500000, -365.000000) translate(182.000000, 158.000000)">
                    <g id="Group-3" stroke-width="1" fill="none">
                        <mask id="mask-4" fill="white">
                            <use xlink:href="#path-3"></use>
                        </mask>
                        <g id="Clip-2"></g>
                        <path d="M247.117606,399.057999 C188.540827,380.606928 138.03993,348.910655 96.5311598,302.812867 C67.7012972,270.795578 45.03329,234.6624 27.9273401,195.086485 C18.7229021,173.791307 10.4653862,151.959736 3.59798106,129.789952 C0.212310751,118.859836 0.153380391,106.625181 0.0121089782,94.9621317 C-0.200201773,77.5445363 2.43148283,60.4053736 9.8768899,44.4307142 C22.3249195,17.722479 43.2112924,3.1145959 72.1759683,0.583316242 C97.085751,-1.59255243 120.167078,5.29455917 142.050423,16.5153919 C180.433463,36.1948424 216.806411,59.0656216 249.122852,88.1298877 C296.643327,130.86765 321.413401,179.442749 320.638427,177.152232 C314.106037,193.832799 301.014668,226.862193 294.837474,242.635398 C290.58803,231.818293 286.768858,221.228028 282.316791,210.921109 C265.8841,172.884763 241.972097,140.289317 211.838501,112.308481 C188.602987,90.7332322 162.75274,72.9200989 135.114401,57.7119479 C125.220558,52.2677722 115.610066,46.076742 105.243166,41.7847858 C90.4564891,35.6625448 74.9247063,34.0934954 59.6116925,40.3958986 C43.7860652,46.909583 34.8940389,59.6364083 30.8036261,75.9378166 C25.056705,98.8429904 27.7069567,121.439432 34.4556939,143.668997 C54.6873747,210.315109 89.141454,268.140641 139.260515,316.067076 C176.54971,351.7261 219.39854,378.698846 266.638893,398.57975 C278.265127,403.472794 290.134347,407.773758 301.892165,412.347422 C301.788835,412.750331 301.684698,413.15242 301.580561,413.554509 C283.413057,408.766288 265.02517,404.698716 247.117606,399.057999 Z" id="Fill-1" fill="#CF0012" mask="url(#mask-4)"></path>
                    </g>
                    <path d="M304.548742,323.703704 C303.5394,329.002695 302.769315,333.050247 302,337.097798 C302.23541,337.324073 302.47159,337.551503 302.706231,337.777778 C304.738763,334.971275 306.770524,332.164772 309,329.082353 C307.388284,327.135926 306.242774,325.750569 304.548742,323.703704 L304.548742,323.703704 Z M330,260.37037 C328.863803,255.290731 327.867769,250.835732 326.871735,246.381693 C326.57042,246.352907 326.269104,246.324122 325.968466,246.296296 C325.009673,250.841489 324.05088,255.386682 323,260.37037 L330,260.37037 Z M354.413823,288.518519 C360.490826,283.655405 365.84913,279.368113 372,274.444444 L351,274.444444 C352.18286,279.325174 353.160091,283.349327 354.413823,288.518519 L354.413823,288.518519 Z M295,281.481481 L274.42555,281.481481 C274.2837,281.840947 274.14185,282.200413 274,282.560915 C279.287792,286.696327 284.574549,290.832774 290.611971,295.555556 C292.241692,290.327243 293.580465,286.032299 295,281.481481 L295,281.481481 Z M350.131752,337.777778 C350.421435,337.547406 350.711117,337.316032 351,337.085659 C349.509974,330.50703 348.019949,323.9284 346.375479,316.666667 C343.112947,319.878857 340.286539,322.661353 337,325.897582 C341.672535,330.125413 345.902544,333.951595 350.131752,337.777778 L350.131752,337.777778 Z M327.291293,281.632146 C325.312755,281.632146 323.323297,281.745835 321.355679,281.607785 C317.758968,281.354242 315.782415,282.255627 315.040836,285.96493 C314.074896,290.790363 312.160886,295.466016 310.517895,300.167836 C308.08071,307.144322 308.03008,307.128983 314.498798,311.738769 C323.7333,318.316444 323.752162,318.339001 333.139547,311.627788 C336.891125,308.947092 342.487221,306.701299 343.689434,303.23832 C344.945255,299.621952 342.07424,294.739675 340.740985,290.479976 C337.316019,279.545156 339.6718,281.651997 327.291293,281.632146 L327.291293,281.632146 Z M377.963993,380 C375.273534,378.870819 372.169158,378.265125 369.957821,376.527415 C354.740236,364.566605 339.636053,352.458386 324.682128,340.168743 C321.858421,337.848017 320.205589,338.172125 317.519855,340.233943 C302.050896,352.120104 286.436404,363.814447 270.833253,375.525799 C269.586777,376.461271 268.061522,377.027278 266.66668,377.764317 C266.334979,377.497849 266.003279,377.231381 265.671578,376.963969 C267.293225,371.650678 268.867621,366.322268 270.543133,361.025985 C275.713313,344.69775 280.824902,328.349671 286.20393,312.090414 C287.179187,309.141315 286.609342,307.598259 284.310119,305.73204 C265.495805,290.454557 246.778828,275.057068 228.036335,259.691707 C227.222677,259.024593 226.440204,258.316847 225,257.070496 C226.663227,256.887181 227.490116,256.698197 228.311334,256.720875 C251.442479,257.364367 274.57835,257.919035 297.701934,258.797812 C301.671945,258.948999 302.745482,257.002462 303.898401,254.001393 C311.562477,234.059779 319.310659,214.150292 327.130663,194.270098 C327.749648,192.69397 329.126536,191.416437 330.150932,190 C331.124298,191.591247 332.538987,193.064379 333.000154,194.79264 C338.435884,215.13301 343.835702,235.48472 348.951071,255.906353 C349.784575,259.232475 351.103817,260.116922 354.32821,260.143379 C372.273109,260.286062 390.223679,260.444809 408.154404,261.069402 C412.4684,261.219644 416.71908,263.159567 421,264.276464 C421,264.759319 421,265.242173 421,265.725973 C413.115735,271.38794 405.244701,277.06786 397.344371,282.707149 C387.101348,290.018003 376.899905,297.392167 366.53403,304.524431 C363.759465,306.434117 362.957146,308.386324 363.738674,311.614174 C368.769937,332.371255 373.676458,353.159518 378.589593,373.944946 C378.937359,375.419023 379.013905,376.956409 379.216139,378.463558 C378.798442,378.975706 378.38169,379.487853 377.963993,380 L377.963993,380 Z" id="Fill-4" fill="#087F52"></path>
                </g>
            </g>
        </g>
    </g>
</svg>

<svg>
  <defs>
    <path d="M659.556 1c10.808 0 19.57 8.764 19.57 19.575 0 1.156-.101 2.289-.293 3.39L521.391 631.934c-2.821 6.519-13.285 20.38-34.198 20.816l-.637.009L2 652.838 509.275 17.477C516.571 8.494 528.951 1.148 541.553 1h118.003z" id="A"/><path id="B" d="M0 .183h353.081v413.371H0z"/></defs><g transform="translate(88 88)" fill="none" fill-rule="evenodd"><path d="M659.556.25H541.553c-12.135.142-24.899 6.952-32.86 16.754L.441 653.588l486.762-.088c9.647-.201 17.79-3.204 24.333-8.284 4.861-3.774 8.554-8.539 10.43-12.728l.136-.309L679.572 24.094c.201-1.155.304-2.331.304-3.519 0-11.225-9.098-20.325-20.32-20.325zm-117.994 1.5h117.994c10.394 0 18.82 8.428 18.82 18.825v.412c-.022.824-.093 1.64-.216 2.447l-.061.372-157.42 607.883c-1.716 3.968-5.304 8.647-10.063 12.342-6.294 4.887-14.127 7.775-23.439 7.969l-.632.009-482.987.078L509.857 17.95c7.692-9.472 20.047-16.063 31.704-16.2z" fill="#000" fill-rule="nonzero"/><mask id="C" fill="#fff"><use xlink:href="#A"/></mask><use fill="#fff" xlink:href="#A"/><g mask="url(#C)"><g transform="matrix(-1 0 0 1 603 158)"><path d="M399.413 311.76l-42.006 162.174-.178.4-.197.416-.216.432-.234.447-.387.695-.282.479-.301.49-.32.5-.34.509-.359.517-.379.525-.399.531-.419.536-.667.811-.47.544c-5.44 6.182-14.83 12.687-29.05 12.983l-.637.009-283.064.048c85.75-12.072 233.427-41.806 359.905-183.047z" fill="#cf0012" transform="matrix(-1 0 0 1 438.920546 0)"/><mask id="D" fill="#fff"><use xlink:href="#B"/></mask><path d="M247.118 399.058c-58.577-18.451-109.078-50.147-150.586-96.245-28.83-32.017-51.498-68.15-68.604-107.726-9.204-21.295-17.462-43.127-24.329-65.297C.212 118.86.153 106.625.012 94.962-.2 77.545 2.431 60.405 9.877 44.431 22.325 17.722 43.211 3.115 72.176.583c24.91-2.176 47.991 4.711 69.874 15.932 38.383 19.679 74.756 42.55 107.072 71.614 47.52 42.738 72.291 91.313 71.516 89.022l-25.801 65.483c-4.249-10.817-8.069-21.407-12.521-31.714-16.433-38.036-40.345-70.632-70.478-98.613-23.236-21.575-49.086-39.388-76.724-54.597-9.894-5.444-19.504-11.635-29.871-15.927-14.787-6.122-30.318-7.691-45.631-1.389-15.826 6.514-24.718 19.241-28.808 35.542-5.747 22.905-3.097 45.502 3.652 67.731 20.232 66.646 54.686 124.472 104.805 172.398 37.289 35.659 80.138 62.632 127.378 82.513 11.626 4.893 23.495 9.194 35.253 13.768l-.312 1.207c-18.168-4.788-36.555-8.856-54.463-14.497z" fill="#cf0012" mask="url(#D)"/><path d="M304.549 323.704L302 337.098l.706.68 6.294-8.695-4.451-5.379zM330 260.37l-3.128-13.989-.903-.085L323 260.37h7zm24.414 28.148L372 274.444h-21l3.414 14.074zM295 281.481h-20.574l-.426 1.079 16.612 12.995L295 281.481zm55.132 56.296l.868-.692-4.625-20.419-9.375 9.231 13.132 11.88zm-22.84-56.146c-1.979 0-3.968.114-5.936-.024-3.597-.254-5.573.648-6.315 4.357-.966 4.825-2.88 9.501-4.523 14.203-2.437 6.976-2.488 6.961 3.981 11.571 9.235 6.578 9.253 6.6 18.641-.111 3.752-2.681 9.348-4.926 10.55-8.389 1.256-3.616-1.615-8.499-2.948-12.758-3.425-10.935-1.069-8.828-13.45-8.848h0zM377.964 380c-2.69-1.129-5.795-1.735-8.006-3.473l-45.276-36.359c-2.824-2.321-4.477-1.997-7.162.065l-46.687 35.292c-1.246.935-2.772 1.501-4.167 2.239l-.995-.8 4.872-15.938 15.661-48.936c.975-2.949.405-4.492-1.894-6.358l-56.274-46.04c-.814-.667-1.596-1.375-3.036-2.621 1.663-.183 2.49-.372 3.311-.35l69.391 2.077c3.97.151 5.044-1.795 6.196-4.796l23.232-59.731c.619-1.576 1.996-2.854 3.02-4.27.973 1.591 2.388 3.064 2.849 4.793l15.951 61.114c.834 3.326 2.153 4.211 5.377 4.237l53.826.926c4.314.15 8.565 2.09 12.846 3.207v1.45l-23.656 16.981-30.81 21.817c-2.775 1.91-3.577 3.862-2.795 7.09l14.851 62.331c.348 1.474.424 3.011.627 4.519L377.964 380z" fill="#087f52"/></g></g></g></svg>
